X: 7791
T: Come Let Us Dance And Sing
R: polka
M: 2/4
K: Dmajor
|:(3A/B/c/|dc/d/ ed/e/|fd d/e/d/c/|Be e/f/e/d/|cA A(3A/B/c/|
dc/d/ ed/e/|fd d/e/d/c/|B/e/e d/c/B/c/|1 dd d:|2 dd dA/G/||
|:FA A/B/A/G/|FA AA/G/|FA df|e/d/c/B/ AA/G/|
FA A/B/A/G/|FA A(3A/B/c/|dc/d/ e/d/e/f/|1 aA A/B/A/G/:|2 aA A||

